public/assets/icons/dots.svg

<svg width="34" height="34" viewBox="0 0 34 34" fill="none" xmlns="http://www.w3.org/2000/svg">
<path d="M14.166 26.9167C14.166 28.475 15.441 29.75 16.9993 29.75C18.5577 29.75 19.8327 28.475 19.8327 26.9167C19.8327 25.3583 18.5577 24.0833 16.9993 24.0833C15.441 24.0833 14.166 25.3583 14.166 26.9167Z" stroke="#A3B2C7" stroke-width="1.50667"/>
<path d="M14.166 7.08268C14.166 8.64102 15.441 9.91602 16.9993 9.91602C18.5577 9.91602 19.8327 8.64102 19.8327 7.08268C19.8327 5.52435 18.5577 4.24935 16.9993 4.24935C15.441 4.24935 14.166 5.52435 14.166 7.08268Z" stroke="#A3B2C7" stroke-width="1.50667"/>
<path d="M14.166 17.0007C14.166 18.559 15.441 19.834 16.9993 19.834C18.5577 19.834 19.8327 18.559 19.8327 17.0007C19.8327 15.4423 18.5577 14.1673 16.9993 14.1673C15.441 14.1673 14.166 15.4423 14.166 17.0007Z" stroke="#A3B2C7" stroke-width="1.50667"/>
</svg>

<svg xmlns="http://www.w3.org/2000/svg" width="34" height="34" fill="none"><path stroke="#A3B2C7" stroke-width="1.507" d="M14.166 26.917a2.84 2.84 0 0 0 2.833 2.833 2.84 2.84 0 0 0 2.834-2.833 2.84 2.84 0 0 0-2.834-2.834 2.84 2.84 0 0 0-2.833 2.834ZM14.166 7.083a2.84 2.84 0 0 0 2.833 2.833 2.84 2.84 0 0 0 2.834-2.833 2.84 2.84 0 0 0-2.834-2.834 2.84 2.84 0 0 0-2.833 2.834ZM14.166 17a2.84 2.84 0 0 0 2.833 2.834 2.84 2.84 0 0 0 2.834-2.833 2.84 2.84 0 0 0-2.834-2.834 2.84 2.84 0 0 0-2.833 2.834Z"/></svg>
